openmetadata-ui/src/main/resources/ui/src/assets/svg/arrow-down-primary.svg

<svg
      fill="none"
      height="6"
      viewBox="0 0 9 6"
      width="9"
      xmlns="http://www.w3.org/2000/svg">
      <path
        d="M4.02202 5.79561L0.198219 1.84571C-0.0660725 1.5727 -0.0660725 1.13124 0.198219 0.861136L0.833647 0.204755C1.09794 -0.0682523 1.5253 -0.0682523 1.78679 0.204755L4.49719 3.00454L7.20759 0.204756C7.47188 -0.068252 7.89925 -0.068252 8.16073 0.204756L8.80178 0.858232C9.06607 1.13124 9.06607 1.5727 8.80178 1.8428L4.97798 5.7927C4.71368 6.06861 4.28632 6.06861 4.02202 5.79561Z"
        fill="#7147E8"
      />
    </svg>

<svg xmlns="http://www.w3.org/2000/svg" width="9" height="6" fill="none"><path fill="#7147E8" d="M4.022 5.796.198 1.846a.71.71 0 0 1 0-.985L.834.205a.657.657 0 0 1 .953 0l2.71 2.8 2.71-2.8a.657.657 0 0 1 .954 0l.64.653a.71.71 0 0 1 0 .985l-3.823 3.95a.658.658 0 0 1-.956.003Z"/></svg>
